Dominus_Dark_Funeral/scalable/apps/pyrenamer.svg

<?xml version="1.0" encoding="UTF-8" standalone="no"?><svg xmlns:dc="http://purl.org/dc/elements/1.1/" xmlns:cc="http://creativecommons.org/ns#" xmlns:rdf="http://www.w3.org/1999/02/22-rdf-syntax-ns#" xmlns="http://www.w3.org/2000/svg" xmlns:xlink="http://www.w3.org/1999/xlink" width="48" height="48" viewBox="0 0 12.7 12.7"><metadata><rdf:RDF><cc:Work><dc:format>image/svg+xml</dc:format><dc:type rdf:resource="http://purl.org/dc/dcmitype/StillImage"/><dc:title/></cc:Work></rdf:RDF></metadata><defs><linearGradient id="d"><stop offset="0" stop-color="#cdde87"/><stop offset="1" stop-color="#d3bc5f"/></linearGradient><linearGradient id="c"><stop offset="0" stop-color="#333"/><stop offset="1" stop-color="#1a1a1a"/></linearGradient><linearGradient id="b"><stop offset="0" stop-color="#ccc"/><stop offset="1" stop-color="#1a1a1a"/></linearGradient><linearGradient id="a"><stop offset="0" stop-color="#abc837"/><stop offset="1" stop-color="#217844"/></linearGradient><linearGradient xlink:href="#b" id="f" x1="1" y1="3.89" x2="8.25" y2="7.81" gradientUnits="userSpaceOnUse"/><linearGradient xlink:href="#c" id="g" x1="4.38" y1="5.41" x2="11.55" y2="8.85" gradientUnits="userSpaceOnUse"/><linearGradient xlink:href="#d" id="e" x1="2.84" y1="10.91" x2="6.85" y2="-.66" gradientUnits="userSpaceOnUse"/></defs><path d="M6.35.1C4.81.1 3.57.38 2.66.96A3.67 3.67 0 0 0 1 4.22c0 1.91 1.54 4.47 2.01 5.2.54.85 1.13 1.61 1.65 2.16.68.7 1.21 1.03 1.69 1.03s1.01-.33 1.69-1.03a15.2 15.2 0 0 0 1.65-2.15c.47-.74 2-3.3 2-5.21 0-1.42-.57-2.54-1.65-3.25A6.75 6.75 0 0 0 6.35.1z" fill="url(#e)"/><path d="M8.39.31a6.75 6.75 0 0 0-.23-.06 6.75 6.75 0 0 0-.67-.11 6.75 6.75 0 0 0-.67-.05 6.75 6.75 0 0 0-.47.01c-.77 0-1.46.07-2.08.21a5.86 5.86 0 0 0-1.61.65 3.67 3.67 0 0 0-.3.22 3.67 3.67 0 0 0-.27.24 3.67 3.67 0 0 0-.25.27 3.67 3.67 0 0 0-.22.3 3.67 3.67 0 0 0-.19.3 3.67 3.67 0 0 0-.16.34 3.67 3.67 0 0 0-.12.34 3.67 3.67 0 0 0-.09.36 3.67 3.67 0 0 0-.05.36 3.67 3.67 0 0 0-.01.37 3.67 3.67 0 0 0 0 .16c0 .48.1 1 .25 1.52s.36 1.04.58 1.52c.09.2.14.25.23.43h6.01c.18 0 .32-.14.32-.32z" fill="url(#f)"/><path d="M4.38 11.22c.1.1.2.27.28.36.34.35.64.6.92.78.28.17.53.25.77.25s.5-.08.77-.25c.28-.17.58-.43.92-.78a15.2 15.2 0 0 0 1.65-2.15c.23-.37.73-1.2 1.18-2.17.22-.48.42-1 .57-1.52.07-.23.07-.43.1-.65H4.7a.32.32 0 0 0-.32.32z" fill="url(#g)"/><path d="M6.46 7.2V9.5h.98c.3 0 .53-.05.68-.16.14-.11.22-.27.22-.5a.62.62 0 0 0-.1-.36.52.52 0 0 0-.3-.2c.1-.04.18-.1.23-.17a.5.5 0 0 0 .08-.3c0-.2-.08-.35-.22-.44-.14-.1-.37-.15-.68-.15zm.6.4h.32c.1 0 .16.03.2.07.05.04.08.1.08.18 0 .08-.03.14-.07.18a.33.33 0 0 1-.2.06h-.34zm0 .89h.34c.11 0 .2.03.26.08s.1.12.1.22-.04.17-.1.22a.4.4 0 0 1-.26.08h-.35z" fill="#fff"/><path d="M4.19 2.44l-.84 2.28h.6l.14-.42H5l.15.42h.59l-.85-2.28zm.36.53l.3.9h-.62z" fill="#1a1a1a"/><path opacity=".2" d="M6.35.1C4.81.1 3.57.38 2.66.96A3.67 3.67 0 0 0 1 4.22c0 1.91 1.54 4.47 2.01 5.2.54.85 1.13 1.61 1.65 2.16.68.7 1.21 1.03 1.69 1.03s1.01-.33 1.69-1.03a15.2 15.2 0 0 0 1.65-2.15c.47-.74 2-3.3 2-5.21 0-1.42-.57-2.54-1.65-3.25A6.75 6.75 0 0 0 6.35.1zm0 .03C6.91.15 7.44.2 7.9.31a5.82 5.82 0 0 1 1.6.66 3.65 3.65 0 0 1 1.24 1.36c.14.27.25.57.32.88a4.61 4.61 0 0 1-.14 2.53c-.15.52-.36 1.04-.58 1.52-.44.97-.95 1.8-1.18 2.17a15.2 15.2 0 0 1-1.65 2.15 4.9 4.9 0 0 1-.92.78.96.96 0 0 1-.24.1.96.96 0 0 1-.24-.1 4.76 4.76 0 0 1-.92-.78 14.41 14.41 0 0 1-1.65-2.15 19.2 19.2 0 0 1-1.18-2.17c-.22-.48-.43-1-.58-1.52a4.6 4.6 0 0 1-.14-2.52 3.73 3.73 0 0 1 .84-1.64 3.65 3.65 0 0 1 1.45-1A6.83 6.83 0 0 1 6.35.13z"/></svg>

<?xml version="1.0" encoding="UTF-8" standalone="no"?>
<svg
   xmlns:dc="http://purl.org/dc/elements/1.1/"
   xmlns:cc="http://creativecommons.org/ns#"
   xmlns:rdf="http://www.w3.org/1999/02/22-rdf-syntax-ns#"
   xmlns:svg="http://www.w3.org/2000/svg"
   xmlns="http://www.w3.org/2000/svg"
   xmlns:xlink="http://www.w3.org/1999/xlink"
   xmlns:sodipodi="http://sodipodi.sourceforge.net/DTD/sodipodi-0.dtd"
   xmlns:inkscape="http://www.inkscape.org/namespaces/inkscape"
   width="48"
   height="48"
   viewBox="0 0 12.7 12.7"
   version="1.1"
   id="svg41"
   sodipodi:docname="pyrenamer.svg"
   inkscape:version="0.92.4 (5da689c313, 2019-01-14)">
  <sodipodi:namedview
     pagecolor="#ffffff"
     bordercolor="#666666"
     borderopacity="1"
     objecttolerance="10"
     gridtolerance="10"
     guidetolerance="10"
     inkscape:pageopacity="0"
     inkscape:pageshadow="2"
     inkscape:window-width="1112"
     inkscape:window-height="480"
     id="namedview43"
     showgrid="false"
     inkscape:zoom="4.9166667"
     inkscape:cx="2.1355932"
     inkscape:cy="24"
     inkscape:window-x="0"
     inkscape:window-y="25"
     inkscape:window-maximized="0"
     inkscape:current-layer="svg41" />
  <metadata
     id="metadata2">
    <rdf:RDF>
      <cc:Work>
        <dc:format>image/svg+xml</dc:format>
        <dc:type
           rdf:resource="http://purl.org/dc/dcmitype/StillImage" />
        <dc:title></dc:title>
      </cc:Work>
    </rdf:RDF>
  </metadata>
  <defs
     id="defs27">
    <linearGradient
       id="d">
      <stop
         offset="0"
         stop-color="#cdde87"
         id="stop4" />
      <stop
         offset="1"
         stop-color="#d3bc5f"
         id="stop6" />
    </linearGradient>
    <linearGradient
       id="c">
      <stop
         offset="0"
         stop-color="#333"
         id="stop9" />
      <stop
         offset="1"
         stop-color="#1a1a1a"
         id="stop11" />
    </linearGradient>
    <linearGradient
       id="b">
      <stop
         offset="0"
         stop-color="#ccc"
         id="stop14" />
      <stop
         offset="1"
         stop-color="#1a1a1a"
         id="stop16" />
    </linearGradient>
    <linearGradient
       id="a">
      <stop
         offset="0"
         stop-color="#abc837"
         id="stop19" />
      <stop
         offset="1"
         stop-color="#217844"
         id="stop21" />
    </linearGradient>
    <linearGradient
       xlink:href="#b"
       id="f"
       x1="1"
       y1="3.89"
       x2="8.25"
       y2="7.81"
       gradientUnits="userSpaceOnUse" />
    <linearGradient
       xlink:href="#c"
       id="g"
       x1="4.38"
       y1="5.41"
       x2="11.55"
       y2="8.85"
       gradientUnits="userSpaceOnUse" />
    <linearGradient
       xlink:href="#d"
       id="e"
       x1="2.84"
       y1="10.91"
       x2="6.85"
       y2="-.66"
       gradientUnits="userSpaceOnUse" />
  </defs>
  <path
     d="M 6.35,0.1 C 4.81,0.1 3.57,0.38 2.66,0.96 A 3.67,3.67 0 0 0 1,4.22 c 0,1.91 1.54,4.47 2.01,5.2 0.54,0.85 1.13,1.61 1.65,2.16 0.68,0.7 1.21,1.03 1.69,1.03 0.48,0 1.01,-0.33 1.69,-1.03 A 15.2,15.2 0 0 0 9.69,9.43 c 0.47,-0.74 2,-3.3 2,-5.21 0,-1.42 -0.57,-2.54 -1.65,-3.25 A 6.75,6.75 0 0 0 6.35,0.1 Z"
     id="path29"
     style="fill:url(#e)"
     inkscape:connector-curvature="0" />
  <path
     d="M 8.39,0.31 A 6.75,6.75 0 0 0 8.16,0.25 6.75,6.75 0 0 0 7.49,0.14 6.75,6.75 0 0 0 6.82,0.09 6.75,6.75 0 0 0 6.35,0.1 C 5.58,0.1 4.89,0.17 4.27,0.31 A 5.86,5.86 0 0 0 2.66,0.96 3.67,3.67 0 0 0 2.36,1.18 3.67,3.67 0 0 0 2.09,1.42 3.67,3.67 0 0 0 1.84,1.69 3.67,3.67 0 0 0 1.62,1.99 3.67,3.67 0 0 0 1.43,2.29 3.67,3.67 0 0 0 1.27,2.63 3.67,3.67 0 0 0 1.15,2.97 3.67,3.67 0 0 0 1.06,3.33 3.67,3.67 0 0 0 1.01,3.69 3.67,3.67 0 0 0 1,4.06 3.67,3.67 0 0 0 1,4.22 c 0,0.48 0.1,1 0.25,1.52 0.15,0.52 0.36,1.04 0.58,1.52 0.09,0.2 0.14,0.25 0.23,0.43 h 6.01 c 0.18,0 0.32,-0.14 0.32,-0.32 z"
     id="path31"
     style="fill:url(#f)"
     inkscape:connector-curvature="0" />
  <path
     d="m 4.38,11.22 c 0.1,0.1 0.2,0.27 0.28,0.36 0.34,0.35 0.64,0.6 0.92,0.78 0.28,0.17 0.53,0.25 0.77,0.25 0.24,0 0.5,-0.08 0.77,-0.25 C 7.4,12.19 7.7,11.93 8.04,11.58 A 15.2,15.2 0 0 0 9.69,9.43 c 0.23,-0.37 0.73,-1.2 1.18,-2.17 0.22,-0.48 0.42,-1 0.57,-1.52 0.07,-0.23 0.07,-0.43 0.1,-0.65 H 4.7 A 0.32,0.32 0 0 0 4.38,5.41 Z"
     id="path33"
     style="fill:url(#g)"
     inkscape:connector-curvature="0" />
  <path
     d="M 6.46,7.2 V 9.5 H 7.44 C 7.74,9.5 7.97,9.45 8.12,9.34 8.26,9.23 8.34,9.07 8.34,8.84 A 0.62,0.62 0 0 0 8.24,8.48 0.52,0.52 0 0 0 7.94,8.28 C 8.04,8.24 8.12,8.18 8.17,8.11 A 0.5,0.5 0 0 0 8.25,7.81 C 8.25,7.61 8.17,7.46 8.03,7.37 7.89,7.27 7.66,7.22 7.35,7.22 Z m 0.6,0.4 h 0.32 c 0.1,0 0.16,0.03 0.2,0.07 0.05,0.04 0.08,0.1 0.08,0.18 0,0.08 -0.03,0.14 -0.07,0.18 A 0.33,0.33 0 0 1 7.39,8.09 H 7.05 Z m 0,0.89 H 7.4 c 0.11,0 0.2,0.03 0.26,0.08 0.06,0.05 0.1,0.12 0.1,0.22 0,0.1 -0.04,0.17 -0.1,0.22 A 0.4,0.4 0 0 1 7.4,9.09 H 7.05 Z"
     id="path35"
     inkscape:connector-curvature="0"
     style="fill:#ffffff" />
  <path
     d="M 4.19,2.44 3.35,4.72 h 0.6 L 4.09,4.3 H 5 L 5.15,4.72 H 5.74 L 4.89,2.44 Z m 0.36,0.53 0.3,0.9 H 4.23 Z"
     id="path37"
     inkscape:connector-curvature="0"
     style="fill:#1a1a1a" />
  <path
     d="M 6.35,0.1 C 4.81,0.1 3.57,0.38 2.66,0.96 A 3.67,3.67 0 0 0 1,4.22 c 0,1.91 1.54,4.47 2.01,5.2 0.54,0.85 1.13,1.61 1.65,2.16 0.68,0.7 1.21,1.03 1.69,1.03 0.48,0 1.01,-0.33 1.69,-1.03 A 15.2,15.2 0 0 0 9.69,9.43 c 0.47,-0.74 2,-3.3 2,-5.21 0,-1.42 -0.57,-2.54 -1.65,-3.25 A 6.75,6.75 0 0 0 6.35,0.1 Z m 0,0.03 C 6.91,0.15 7.44,0.2 7.9,0.31 a 5.82,5.82 0 0 1 1.6,0.66 3.65,3.65 0 0 1 1.24,1.36 c 0.14,0.27 0.25,0.57 0.32,0.88 A 4.61,4.61 0 0 1 10.92,5.74 C 10.77,6.26 10.56,6.78 10.34,7.26 9.9,8.23 9.39,9.06 9.16,9.43 A 15.2,15.2 0 0 1 7.51,11.58 4.9,4.9 0 0 1 6.59,12.36 0.96,0.96 0 0 1 6.35,12.46 0.96,0.96 0 0 1 6.11,12.36 4.76,4.76 0 0 1 5.19,11.58 14.41,14.41 0 0 1 3.54,9.43 19.2,19.2 0 0 1 2.36,7.26 C 2.14,6.78 1.93,6.26 1.78,5.74 A 4.6,4.6 0 0 1 1.64,3.22 3.73,3.73 0 0 1 2.48,1.58 3.65,3.65 0 0 1 3.93,0.58 6.83,6.83 0 0 1 6.35,0.13 Z"
     id="path39"
     inkscape:connector-curvature="0"
     style="opacity:0.2" />
</svg>
